X:3487
T:Cottage that stands by the sea, The
R:Jig
O:England
M:6/8
A:Lancashire
B:Winder
K:G
d | d>cB d>cB | g>fe d>cB | cec BdB | BAA A2d | \
d>cB d>cB | g>fe d>cB | cac BgB | A>GA G2 :|*
|:d | dgg gfa | agb bag | fgf afd | eg^c d2d | \
e>fg gec | B>cd dBd | gfg eag | f>ef g2 :|**


